img/download-arrow.svg

<svg width="24" height="24" viewBox="0 0 24 24" fill="none" xmlns="http://www.w3.org/2000/svg">
<path d="M18.1738 12.5431C18.4292 12.2877 18.4292 11.8855 18.1738 11.63C17.9269 11.3746 17.5161 11.3746 17.2698 11.63L12.6398 16.2514V0.981576C12.6398 0.62542 12.3567 0.33313 12.0006 0.33313C11.6444 0.33313 11.3521 0.62542 11.3521 0.981576V16.2514L6.7313 11.63C6.47583 11.3746 6.06444 11.3746 5.81818 11.63C5.56272 11.8855 5.56272 12.2877 5.81818 12.5431L11.5443 18.2693C11.7911 18.5161 12.202 18.5161 12.4574 18.2693L18.1738 12.5431ZM22.7123 16.7353C22.7123 16.3792 22.9954 16.0961 23.3516 16.0961C23.7077 16.0961 24 16.3792 24 16.7353V23.0184C24 23.3746 23.7077 23.6668 23.3516 23.6668H0.63924C0.283084 23.6668 0 23.3746 0 23.0184V16.7353C0 16.3792 0.283084 16.0961 0.63924 16.0961C0.995397 16.0961 1.28769 16.3792 1.28769 16.7353V22.3792H22.7123V16.7353Z" fill="#F6F6F6"/>
</svg>

<svg width="24" height="24" viewBox="0 0 24 24" fill="none" xmlns="http://www.w3.org/2000/svg"><path d="M18.174 12.543a.64.64 0 0 0 0-.913.63.63 0 0 0-.904 0l-4.63 4.621V.981a.643.643 0 1 0-1.288 0v15.27l-4.62-4.621a.64.64 0 0 0-.914 0 .64.64 0 0 0 0 .913l5.726 5.726a.656.656 0 0 0 .913 0l5.717-5.726zm4.538 4.192c0-.356.283-.639.64-.639.356 0 .648.283.648.64v6.282a.65.65 0 0 1-.648.649H.639A.643.643 0 0 1 0 23.018v-6.283c0-.356.283-.639.64-.639.355 0 .648.283.648.64v5.643h21.424v-5.644z" fill="#F6F6F6"/></svg>
